svg/u1f42f.svg

<svg viewBox="0 0 128 128" xmlns="http://www.w3.org/2000/svg">
  <path d="M14.72,40.48c0,0-10.98,19.29-10,35.76s5.35,20.55,15.77,25.48c10.42,4.93,10.56-49.55,10.56-49.55 L14.72,40.48z" fill="#FFD2B1"/>
  <path d="M112.84,37.95L98.39,54c0,0,2.35,48.85,4.74,49.27c2.39,0.42,14.5-4.79,18.3-12.53 s2.14-20.7,1.27-25.2C121.01,56.81,112.84,37.95,112.84,37.95z" fill="#FFD2B1"/>
  <path d="M64.23,8.81c-10.42-0.13-20.08,3.24-20.08,3.24S26.69-0.62,14.86,9.51 C0.09,22.18,13.17,40.76,14.3,42.03s6.19,13.23,6.19,13.23s-3.1,12.11-3.24,20.55c-0.2,11.84,2.39,25.53,2.39,25.53 s4.93,2.21,9.43,3.75c3.62,1.24,5.91,1.55,7.18,2.53c1.27,0.99,9.43,12.39,19.01,13.94c8.45,1.37,21.96,0.42,29.28-7.32 c5.61-5.93,6.76-7.46,7.74-8.02c0.99-0.56,13.33-3.33,13.33-3.33s4.27-20.74,4.27-29.75s-1.13-16.19-1.13-16.19l4.79-12.39 c0,0,15.49-19.85,1.27-31.96c-13.09-11.15-27.87,0.84-27.87,0.84S75.49,8.95,64.23,8.81z" fill="#FF8E01"/>
  <path d="M19.08,16.41c8.45-7.34,15.63-0.14,15.63,0.56c0,0.34-4.92,3.23-8.87,6.9 c-4.2,3.9-7.45,8.59-7.88,8.59C17.11,32.46,11.62,22.89,19.08,16.41z" fill="#FF6011"/>
  <path d="M109.47,18.38c-5.2-4.79-13.66-0.7-13.94,0c-0.14,0.35,4.5,3.55,8.02,7.04 c3.65,3.62,6.75,7.67,7.04,7.74C111.15,33.3,116.5,24.86,109.47,18.38z" fill="#FF6011"/>
  <path d="M39.78,87.36c0,0-0.29,28.59,22.81,27.87c27.17-0.84,23.51-26.61,23.51-26.61L39.78,87.36z" fill="#FFD2B1"/>
  <path d="M63.43,81.17c0,0-18.58,9.71-18.44,9.15c0.07-0.27,4.63,3.25,9.38,7c5.19,4.1,18.76,1.14,18.76,1.14 l8.89-8.01L63.43,81.17z" fill="#FEA7A5"/>
  <path d="M64.56,64.13c0,0-22.52-10.84-30.13-0.28s0,21.4,5.35,23.51s13.8,9.43,13.8,9.43s1.41-2.96,1.27-4.36 c-0.14-1.41-1.13-5.77-1.13-5.77l9.71-5.49l7.88,7.18c0,0-1.13,7.18-0.56,8.02s4.93-0.99,4.93-0.99l2.25-7.04 c0,0,5.4-0.33,8.92-0.75c3.52-0.42,10.93-5.3,10.09-13.89s-8.59-13.51-14.5-13.37C76.52,60.47,64.56,64.13,64.56,64.13z" fill="#FFFFFF"/>
  <path d="M90.88,86.66c-0.58-1.44-10.14-1.83-16.33-5.49c-6.5-3.84-6.05-8.31-6.05-8.31s4.68-2.39,8.87-5.49 c4.19-3.1,7.79-6.84,6.62-8.87c-2.77-4.79-11.54,1.55-19.85,1.13c-8.03-0.41-18.61-5.28-20.41-2.67c-1.9,2.75,1.85,7.02,6.34,10.28 c4.49,3.26,9.71,5.49,9.71,5.49s0,5.63-7.18,8.73c-8.02,3.46-15.58,3.24-16.05,3.66c-1.41,1.27,0.53,2.66,2.11,3.24 c1.55,0.56,3.24,0.56,3.24,0.56s1.27,10.98,21.54,11.4c19.71,0.41,20.41-9.85,20.41-9.85s1.97-0.42,3.84-1.11 S91.3,87.71,90.88,86.66z M63.15,95.67c-11.68-0.14-15.63-5.49-15.63-5.49s4.36,0,7.46-0.7c3.83-0.87,8.31-4.65,8.31-4.65 s3.65,3.84,6.76,4.93c2.82,0.99,8.02,1.55,8.02,1.55S74.83,95.81,63.15,95.67z" fill="#2F2F2F"/>
  <path d="M47.94,41.61c0,3.46-2.98,6.33-6.48,6.9c-3.45,0.56-6.62-2.46-6.48-7.04 c0.11-3.46,3.08-5.63,6.62-5.63S47.94,37.88,47.94,41.61z" fill="#2F2F2F"/>
  <path d="M86.94,48.23c-3.28-1.11-5.25-3.92-4.42-7.9c0.9-4.35,3.94-6.09,8.22-4.49 c3.24,1.21,4.76,5.31,3.73,8.69C93.56,47.52,90.47,49.42,86.94,48.23z" fill="#2F2F2F"/>
  <path d="M102.05,41.14c-1.37,1.55-5.2,0.34-5.73,2.44c-0.75,3,7.23,5.63,10.14,1.78 c2.91-3.85-0.37-12.43-3.1-10.61C101.68,35.88,103.46,39.54,102.05,41.14z" fill="#2F2F2F"/>
  <path d="M109.47,38.32c-1.06,0.43,0.19,3.85,0.66,6.48s0,7.04-1.5,8.82c-1.5,1.78-2.91,1.31-2.91,1.31 s-3.56-6.42-5.44-3.85c-1.78,2.44,2.06,2.82,1.6,7.6c-0.47,4.79-3.78,7.17-0.38,7.88c1.78,0.38,3.57-2.91,3.57-2.91 s5.82,0.09,8.73-6.76c2.19-5.15,0.84-9.01-0.19-12.95S109.93,38.14,109.47,38.32z" fill="#2F2F2F"/>
  <path d="M110.03,69.2c-3.57,3.94-8.82,8.35-9.2,9.48c-0.38,1.13-0.38,3.75,4.79,2.91s10.04-5.63,11.59-8.59 c2.03-3.87,2.77-10.37,1.64-12.72c-1.13-2.35-3.19-1.22-3.85,0.75C114.35,63.01,111.39,67.7,110.03,69.2z" fill="#2F2F2F"/>
  <path d="M28.56,38.79c-0.09-2.35,2.25-4.41,0.84-5.63c-1.87-1.62-6.95,2.82-5.35,8.17s7.92,4.69,8.96,3.85 c1.74-1.41,0.46-2.66-0.47-3.1C31.1,41.4,28.65,41.08,28.56,38.79z" fill="#2F2F2F"/>
  <path d="M23.87,52.59c0,0,2.16-3.57,3.94-2.06c1.78,1.5-2.16,4.04-1.69,8.35s2.91,7.51,1.69,8.73 c-1.69,1.69-4.32-1.88-5.16-3.19c-0.84-1.31-1.41-3.1-1.41-3.1s-5.82-4.79-6.85-10.7c-0.8-4.57,0.47-9.85,3.28-12.39 c1.92-1.73,2.89-1.71,3.66-0.94c1.13,1.13-1.88,5.63-0.84,10.04C21.52,51.75,23.87,52.59,23.87,52.59z" fill="#2F2F2F"/>
  <path d="M19.84,69.67c-2.58-3.22-7.18-10.77-8.92-10.14c-2.06,0.75-1.69,10.53,3.19,16.14 c6.19,7.13,14.17,7.04,15.11,4.13C29.91,77.66,24.34,75.3,19.84,69.67z" fill="#2F2F2F"/>
  <path d="M58.36,9.02c0,0,0.7,5.07-4.86,6.69s-8.94-0.44-8.73,4.08c0.11,2.25,2.51,3.37,4.93,3.52 c2.42,0.15,4.82-0.75,6.12-1.27c2.82-1.13,7.32-6.69,8.09-6.83c0.77-0.14,3.17,3.8,8.02,5.91c2.22,0.96,5.04,1.77,7.2,1.48 c2.27-0.3,4.17-1.83,3.99-4.79C83,15.57,79.76,16.69,74.41,15s-4.6-5.82-4.6-5.82s-3.99-0.38-5.96-0.38 C61.88,8.81,58.36,9.02,58.36,9.02z" fill="#2F2F2F"/>
  <path d="M64.2,20c-1.1-0.02-3.73,3.52-6.19,4.72s-7.74,1.48-8.38,3.73c-0.63,2.25,1.34,4.93,6.69,4.22 c5.54-0.73,7.39-5.07,8.09-5.14c0.7-0.07,2.96,5.07,9.01,5.56c5.21,0.42,6.64-4.01,5-5.49c-2.25-2.04-6.26-2.53-8.24-3.45 C67.84,23.06,65.19,20.02,64.2,20z" fill="#2F2F2F"/>
</svg>

<svg viewBox="0 0 128 128" xmlns="http://www.w3.org/2000/svg">
  <defs/>
  <path d="M14.72,40.48 C14.72,40.48 3.74,59.77 4.72,76.24 C5.7,92.71 10.07,96.79 20.49,101.72 C30.91,106.65 31.05,52.17 31.05,52.17 L14.72,40.48 Z" fill="#FFD2B1"/>
  <path d="M112.84,37.95 L98.39,54 C98.39,54 100.74,102.85 103.13,103.27 C105.52,103.69 117.63,98.48 121.43,90.74 C125.23,83 123.57,70.04 122.7,65.54 C121.01,56.81 112.84,37.95 112.84,37.95 Z" fill="#FFD2B1"/>
  <path d="M64.23,8.81 C53.81,8.68 44.15,12.05 44.15,12.05 C44.15,12.05 26.69,-0.62 14.86,9.51 C0.09,22.18 13.17,40.76 14.3,42.03 C15.43,43.3 20.49,55.26 20.49,55.26 C20.49,55.26 17.39,67.37 17.25,75.81 C17.05,87.65 19.64,101.34 19.64,101.34 C19.64,101.34 24.57,103.55 29.07,105.09 C32.69,106.33 34.98,106.64 36.25,107.62 C37.52,108.61 45.68,120.01 55.26,121.56 C63.71,122.93 77.22,121.98 84.54,114.24 C90.15,108.31 91.3,106.78 92.28,106.22 C93.27,105.66 105.61,102.89 105.61,102.89 C105.61,102.89 109.88,82.15 109.88,73.14 C109.88,64.13 108.75,56.95 108.75,56.95 L113.54,44.56 C113.54,44.56 129.03,24.71 114.81,12.6 C101.72,1.45 86.94,13.44 86.94,13.44 C86.94,13.44 75.49,8.95 64.23,8.81 Z" fill="#FF8E01"/>
  <path d="M19.08,16.41 C27.53,9.07 34.71,16.27 34.71,16.97 C34.71,17.31 29.79,20.2 25.84,23.87 C21.64,27.77 18.39,32.46 17.96,32.46 C17.11,32.46 11.62,22.89 19.08,16.41 Z" fill="#FF6011"/>
  <path d="M109.47,18.38 C104.27,13.59 95.81,17.68 95.53,18.38 C95.39,18.73 100.03,21.93 103.55,25.42 C107.2,29.04 110.3,33.09 110.59,33.16 C111.15,33.3 116.5,24.86 109.47,18.38 Z" fill="#FF6011"/>
  <path d="M39.78,87.36 C39.78,87.36 39.49,115.95 62.59,115.23 C89.76,114.39 86.1,88.62 86.1,88.62 L39.78,87.36 Z" fill="#FFD2B1"/>
  <path d="M63.43,81.17 C63.43,81.17 44.85,90.88 44.99,90.32 C45.06,90.05 49.62,93.57 54.37,97.32 C59.56,101.42 73.13,98.46 73.13,98.46 L82.02,90.45 L63.43,81.17 Z" fill="#FEA7A5"/>
  <path d="M64.56,64.13 C64.56,64.13 42.04,53.29 34.43,63.85 C26.82,74.41 34.43,85.25 39.78,87.36 C45.13,89.47 53.58,96.79 53.58,96.79 C53.58,96.79 54.99,93.83 54.85,92.43 C54.71,91.02 53.72,86.66 53.72,86.66 L63.43,81.17 L71.31,88.35 C71.31,88.35 70.18,95.53 70.75,96.37 C71.32,97.21 75.68,95.38 75.68,95.38 L77.93,88.34 C77.93,88.34 83.33,88.01 86.85,87.59 C90.37,87.17 97.78,82.29 96.94,73.7 C96.1,65.11 88.35,60.19 82.44,60.33 C76.52,60.47 64.56,64.13 64.56,64.13 Z" fill="#FFFFFF"/>
  <path d="M90.88,86.66 C90.3,85.22 80.74,84.83 74.55,81.17 C68.05,77.33 68.5,72.86 68.5,72.86 C68.5,72.86 73.18,70.47 77.37,67.37 C81.56,64.27 85.16,60.53 83.99,58.5 C81.22,53.71 72.45,60.05 64.14,59.63 C56.11,59.22 45.53,54.35 43.73,56.96 C41.83,59.71 45.58,63.98 50.07,67.24 C54.56,70.5 59.78,72.73 59.78,72.73 C59.78,72.73 59.78,78.36 52.6,81.46 C44.58,84.92 37.02,84.7 36.55,85.12 C35.14,86.39 37.08,87.78 38.66,88.36 C40.21,88.92 41.9,88.92 41.9,88.92 C41.9,88.92 43.17,99.9 63.44,100.32 C83.15,100.73 83.85,90.47 83.85,90.47 C83.85,90.47 85.82,90.05 87.69,89.36 C89.56,88.67 91.3,87.71 90.88,86.66 Z M63.15,95.67 C51.47,95.53 47.52,90.18 47.52,90.18 C47.52,90.18 51.88,90.18 54.98,89.48 C58.81,88.61 63.29,84.83 63.29,84.83 C63.29,84.83 66.94,88.67 70.05,89.76 C72.87,90.75 78.07,91.31 78.07,91.31 C78.07,91.31 74.83,95.81 63.15,95.67 Z" fill="#2F2F2F"/>
  <path d="M47.94,41.61 C47.94,45.07 44.96,47.94 41.46,48.51 C38.01,49.07 34.84,46.05 34.98,41.47 C35.09,38.01 38.06,35.84 41.6,35.84 C45.14,35.84 47.94,37.88 47.94,41.61 Z" fill="#2F2F2F"/>
  <path d="M86.94,48.23 C83.66,47.12 81.69,44.31 82.52,40.33 C83.42,35.98 86.46,34.24 90.74,35.84 C93.98,37.05 95.5,41.15 94.47,44.53 C93.56,47.52 90.47,49.42 86.94,48.23 Z" fill="#2F2F2F"/>
  <path d="M102.05,41.14 C100.68,42.69 96.85,41.48 96.32,43.58 C95.57,46.58 103.55,49.21 106.46,45.36 C109.37,41.51 106.09,32.93 103.36,34.75 C101.68,35.88 103.46,39.54 102.05,41.14 Z" fill="#2F2F2F"/>
  <path d="M109.47,38.32 C108.41,38.75 109.66,42.17 110.13,44.8 C110.6,47.43 110.13,51.84 108.63,53.62 C107.13,55.4 105.72,54.93 105.72,54.93 C105.72,54.93 102.16,48.51 100.28,51.08 C98.5,53.52 102.34,53.9 101.88,58.68 C101.41,63.47 98.1,65.85 101.5,66.56 C103.28,66.94 105.07,63.65 105.07,63.65 C105.07,63.65 110.89,63.74 113.8,56.89 C115.99,51.74 114.64,47.88 113.61,43.94 C112.58,40 109.93,38.14 109.47,38.32 Z" fill="#2F2F2F"/>
  <path d="M110.03,69.2 C106.46,73.14 101.21,77.55 100.83,78.68 C100.45,79.81 100.45,82.43 105.62,81.59 C110.79,80.75 115.66,75.96 117.21,73 C119.24,69.13 119.98,62.63 118.85,60.28 C117.72,57.93 115.66,59.06 115,61.03 C114.35,63.01 111.39,67.7 110.03,69.2 Z" fill="#2F2F2F"/>
  <path d="M28.56,38.79 C28.47,36.44 30.81,34.38 29.4,33.16 C27.53,31.54 22.45,35.98 24.05,41.33 C25.65,46.68 31.97,46.02 33.01,45.18 C34.75,43.77 33.47,42.52 32.54,42.08 C31.1,41.4 28.65,41.08 28.56,38.79 Z" fill="#2F2F2F"/>
  <path d="M23.87,52.59 C23.87,52.59 26.03,49.02 27.81,50.53 C29.59,52.03 25.65,54.57 26.12,58.88 C26.59,63.19 29.03,66.39 27.81,67.61 C26.12,69.3 23.49,65.73 22.65,64.42 C21.81,63.11 21.24,61.32 21.24,61.32 C21.24,61.32 15.42,56.53 14.39,50.62 C13.59,46.05 14.86,40.77 17.67,38.23 C19.59,36.5 20.56,36.52 21.33,37.29 C22.46,38.42 19.45,42.92 20.49,47.33 C21.52,51.75 23.87,52.59 23.87,52.59 Z" fill="#2F2F2F"/>
  <path d="M19.84,69.67 C17.26,66.45 12.66,58.9 10.92,59.53 C8.86,60.28 9.23,70.06 14.11,75.67 C20.3,82.8 28.28,82.71 29.22,79.8 C29.91,77.66 24.34,75.3 19.84,69.67 Z" fill="#2F2F2F"/>
  <path d="M58.36,9.02 C58.36,9.02 59.06,14.09 53.5,15.71 C47.94,17.33 44.56,15.27 44.77,19.79 C44.88,22.04 47.28,23.16 49.7,23.31 C52.12,23.46 54.52,22.56 55.82,22.04 C58.64,20.91 63.14,15.35 63.91,15.21 C64.68,15.07 67.08,19.01 71.93,21.12 C74.15,22.08 76.97,22.89 79.13,22.6 C81.4,22.3 83.3,20.77 83.12,17.81 C83,15.57 79.76,16.69 74.41,15 C69.06,13.31 69.81,9.18 69.81,9.18 C69.81,9.18 65.82,8.8 63.85,8.8 C61.88,8.81 58.36,9.02 58.36,9.02 Z" fill="#2F2F2F"/>
  <path d="M64.2,20 C63.1,19.98 60.47,23.52 58.01,24.72 C55.55,25.92 50.27,26.2 49.63,28.45 C49,30.7 50.97,33.38 56.32,32.67 C61.86,31.94 63.71,27.6 64.41,27.53 C65.11,27.46 67.37,32.6 73.42,33.09 C78.63,33.51 80.06,29.08 78.42,27.6 C76.17,25.56 72.16,25.07 70.18,24.15 C67.84,23.06 65.19,20.02 64.2,20 Z" fill="#2F2F2F"/>
</svg>
